X:516
T:
N:
S:Efter »Florsen» i Burs.
R:vals
O:Gotland, Burs
M:3/4
L:1/8
K:F
c2 aa aa|a2 g2 a2|a2 ff ff|f2 e2 f2|g3 fed|c2 d2 e2|f3 e d2|c3 B A2|
c2 aaaa|a2 g2 a2|a2 ff ff|f2 e2 f2|g3 fed|c2 d2 e2|g2 ff ff|1 f4 z2:|2
f4 cB|:(Ac) (fA) (cf)|(Bd) (fB) (df)|(ef) (gc) (ea)|(gf) (ed) (cB)|
(Ac) (fA) (cf)|(Bd) (fB) (df)|(ef) (gc) (eg)|1 f4 cB:|2 f6||

